client/public/media/icons/add.svg

<svg viewBox="0 0 16 16" xmlns="http://www.w3.org/2000/svg"><g fill="none" fill-rule="evenodd"><path d="m19 19v-7h2v7h7v2h-7v7h-2v-7h-7v-2h7" transform="translate(-12-12)" fill="#fff"/></g></svg>

<?xml version="1.0" encoding="UTF-8" standalone="no"?>
<svg width="16px" height="16px" viewBox="0 0 16 16" version="1.1" xmlns="http://www.w3.org/2000/svg" xmlns:xlink="http://www.w3.org/1999/xlink" xmlns:sketch="http://www.bohemiancoding.com/sketch/ns">
    <!-- Generator: Sketch 3.1.1 (8761) - http://www.bohemiancoding.com/sketch -->
    <title>add</title>
    <desc>Created with Sketch.</desc>
    <defs></defs>
    <g id="Page-1" stroke="none" stroke-width="1" fill="none" fill-rule="evenodd" sketch:type="MSPage">
        <g id="add" sketch:type="MSArtboardGroup" transform="translate(-12.000000, -12.000000)" fill="#FFFFFF">
            <g id="icon" sketch:type="MSLayerGroup">
                <path d="M19,19 L19,12 L21,12 L21,19 L28,19 L28,21 L21,21 L21,28 L19,28 L19,21 L12,21 L12,19 L19,19 Z" id="plus" sketch:type="MSShapeGroup"></path>
            </g>
        </g>
    </g>
</svg>
